packages/icon/src/svg/q-n-a.icon.svg

<svg width="24" height="24" viewBox="0 0 24 24" fill="none" xmlns="http://www.w3.org/2000/svg">
<path d="M10.0911 11.057C10.1343 11.0214 10.1897 11 10.25 11H18.75C18.8881 11 19 11.1119 19 11.25V12.75C19 12.8881 18.8881 13 18.75 13H10.25C10.1119 13 10 12.8881 10 12.75V11.25C10 11.1722 10.0354 11.1028 10.0911 11.057Z" fill="white"/>
<path d="M10.25 14C10.1119 14 10 14.1119 10 14.25V15.75C10 15.8225 10.0308 15.8877 10.0801 15.9333C10.1248 15.9747 10.1845 16 10.25 16H16.75C16.8881 16 17 15.8881 17 15.75V14.25C17 14.1746 16.9666 14.1069 16.9137 14.0612C16.8699 14.0231 16.8126 14 16.75 14H10.25Z" fill="white"/>
<path fill-rule="evenodd" clip-rule="evenodd" d="M20 7H22C22.5523 7 23 7.44772 23 8V22.1169C23 22.5055 22.5761 22.7456 22.2428 22.5457L18 20H6.99998C6.44769 20 5.99997 19.5523 5.99998 19L6 17H1.99996C1.44768 17 0.999963 16.5523 0.999965 16L1 3C1 2.44771 1.44772 2 2 2H19C19.5523 2 20 2.44772 20 3V7ZM17.9998 7L17.9996 6.1178C17.9995 5.41187 17.9994 4.70593 18 4H3V15.0033H6L5.99997 8.00001C5.99996 7.44772 6.44768 7 6.99997 7H17.9998ZM8 9V18H18.5L21 19.5V9H8Z" fill="white"/>
</svg>

<svg aria-label="q n a icon" viewBox="0 0 24 24"><path d="M10.091 11.057A.25.25 0 0110.25 11h8.5a.25.25 0 01.25.25v1.5a.25.25 0 01-.25.25h-8.5a.25.25 0 01-.25-.25v-1.5a.25.25 0 01.091-.193zM10.25 14a.25.25 0 00-.25.25v1.5a.249.249 0 00.25.25h6.5a.25.25 0 00.25-.25v-1.5a.249.249 0 00-.25-.25h-6.5z"/><path fill-rule="evenodd" clip-rule="evenodd" d="M20 7h2a1 1 0 011 1v14.117a.5.5 0 01-.757.429L18 20H7a1 1 0 01-1-1v-2H2a1 1 0 01-1-1V3a1 1 0 011-1h17a1 1 0 011 1v4zm-2 0V4H3v11.003h3V8a1 1 0 011-1h11zM8 9v9h10.5l2.5 1.5V9H8z"/></svg>
